file/bbc-world-news.svg

<svg clip-rule="evenodd" fill-rule="evenodd" stroke-linejoin="round" stroke-miterlimit="1.41421" viewBox="0 0 560 400" xmlns="http://www.w3.org/2000/svg"><g transform="matrix(1.5873 0 0 -1.5873 -45.8 866.93)"><path d="m121.254 357.166h168v126h-168z" fill="#c02519"/><path d="m776.505 595.857-16.228-9.861c-10.181-6.215-17.424-12.327-21.729-18.343-4.304-6.016-6.463-12.938-6.463-20.768 0-11.747 4.075-21.281 12.231-28.609 8.144-7.334 18.736-11.004 31.765-11.004 12.449 0 23.876 3.501 34.275 10.49v24.238c-10.75-10.338-22.322-15.508-34.704-15.508-6.977 0-12.708 1.615-17.195 4.843-4.48 3.223-6.729 7.352-6.729 12.388 0 4.462 1.657 8.652 4.958 12.546 3.307 3.905 8.615 7.998 15.937 12.279l16.312 9.655c18.192 10.871 27.285 24.704 27.285 41.499 0 11.959-4.002 21.675-12.007 29.148-8.011 7.472-18.422 11.203-31.233 11.203-14.728 0-28.144-4.517-40.248-13.579v-27.122c11.524 14.613 24.873 21.916 40.036 21.916 6.693 0 12.261-1.862 16.711-5.586 4.45-3.725 6.675-8.386 6.675-13.991 0-9.074-6.554-17.684-19.649-25.834zm-220.9 63.138h-4.583l-60.115-149.794h21.512l41.1 102.811 41.384-102.811h20.188l41.571 102.811 40.689-102.811h21.294l-60.308 149.794h-4.692l-48.766-121.293zm-327.278-.647h-20.066v-149.147h17.291l100.574 115.84v-115.84h20.29v149.147h-18.367l-99.722-114.873zm243.155-.212h-86.584v-148.935h84.559v18.996h-63.205v45.484h61.07v19.111h-61.07v46.342h65.23zm-49.855-354.26c23.047 0 42.237 7.297 57.563 21.892 15.327 14.589 22.999 32.884 22.999 54.873 0 22.001-7.739 40.199-23.21 54.619-15.472 14.407-34.976 21.614-58.531 21.614-22.466 0-41.197-7.207-56.166-21.614-14.976-14.42-22.467-32.479-22.467-54.19 0-22.279 7.539-40.713 22.618-55.302 15.084-14.595 34.147-21.892 57.194-21.892zm-246.214 151.928h-4.583l-60.12-149.794h21.523l41.1 102.823 41.379-102.823h20.187l41.572 102.823 40.683-102.823h21.3l-60.302 149.794h-4.698l-48.766-121.282zm372.846-.635h-21.354v-149.159h37.364c15.09 0 27.073 3.736 35.931 11.209 8.863 7.479 13.288 17.582 13.288 30.326 0 8.688-2.164 16.197-6.505 22.533-4.347 6.331-10.574 11.071-18.688 14.196 4.77 3.138 9.432 7.407 13.984 12.818 4.559 5.405 10.962 14.83 19.22 28.282 5.2 8.477 9.365 14.849 12.491 19.112l7.902 10.683h-25.411l-6.505-9.825c-.218-.357-.641-.967-1.282-1.82l-4.154-5.876-6.614-10.895-7.146-11.645c-4.401-6.124-8.44-10.997-12.11-14.625-3.67-3.621-6.989-6.233-9.939-7.835-2.963-1.59-7.933-2.394-14.916-2.394h-5.556zm202.962 0h-88.507v-149.159h21.354v129.727h67.153zm72.653-.218h-47.194v-148.941h50.284c20.29 0 36.336 3.047 48.162 9.135 11.813 6.082 21.203 15.03 28.18 26.85 6.977 11.814 10.465 24.698 10.465 38.646 0 9.969-1.923 19.504-5.768 28.615-3.845 9.117-9.323 17.122-16.439 24.02-7.261 7.129-15.701 12.497-25.308 16.125-5.623 2.207-10.78 3.682-15.483 4.432-4.698.749-13.664 1.118-26.899 1.118zm-401.388-130.785c-17.074 0-31.1 5.338-42.086 16.009-10.991 10.683-16.481 24.317-16.481 40.895 0 16.088 5.514 29.474 16.536 40.151 11.021 10.671 24.818 16.009 41.39 16.009 16.632 0 30.52-5.447 41.656-16.336 11.125-10.888 16.687-24.449 16.687-40.677 0-15.804-5.562-29.092-16.687-39.878-11.136-10.786-24.806-16.173-41.015-16.173zm402.241.852h-26.693v110.931h27.328c10.683 0 18.972-.726 24.885-2.189 5.9-1.457 10.828-3.313 14.788-5.55 3.942-2.249 7.557-5 10.828-8.277 10.532-10.677 15.804-24.159 15.804-40.465 0-16.016-5.411-29.075-16.227-39.178-3.984-3.772-8.561-6.874-13.718-9.292-5.17-2.419-10.061-4.021-14.686-4.807-4.625-.78-12.061-1.173-22.309-1.173zm-270.065-.852h-6.403v47.085h8.114c10.816 0 18.234-.925 22.261-2.781 4.02-1.844 7.152-4.643 9.395-8.373 2.243-3.737 3.362-7.993 3.362-12.769 0-4.692-1.246-8.942-3.737-12.757-2.491-3.809-5.997-6.494-10.514-8.053-4.522-1.572-12.019-2.352-22.478-2.352zm192.889-85.417h-142.418v-134.026h142.418zm-328.203 0h-142.418v-134.026h142.418zm164.098 0h-142.423v-134.026h142.423zm135.822-44.546-2.286 1.396c-11.027 6.735-23.022 10.345-33.917 10.339-23.325-.091-38.682-13.912-38.742-34.021.024-19.679 16.064-34.244 38.149-34.292 11.252.006 21.439 2.914 33.549 9.553l2.225 1.221v-17.963l-.955-.374c-13.652-5.387-24.226-7.788-34.667-7.782-16.149-.006-30.158 5.327-40.139 14.372-9.976 9.05-15.907 21.825-15.895 36.499.006 10.223 4.22 22.2 13.253 31.711 9.002 9.51 22.877 16.439 41.904 16.432h.066c15.78 0 26.723-3.512 36.614-8.391l.841-.411zm-374.617-70.689h-30.363v96.529h35.629c12.714 0 21.632-3.446 27.376-8.555 5.743-5.085 8.228-11.759 8.216-17.908.042-12.177-8.077-21.433-21.04-24.988 3.495-1.789 6.264-3.978 8.289-6.644 2.721-3.579 4.009-7.963 4.002-13.078.007-6.275-2.46-12.678-7.762-17.472-5.303-4.789-13.356-7.89-24.347-7.884zm164.098 0h-30.357v96.529h35.629c12.709 0 21.632-3.446 27.376-8.555 5.75-5.085 8.216-11.759 8.21-17.908.043-12.177-8.065-21.433-21.046-24.988 3.507-1.789 6.276-3.978 8.308-6.644 2.708-3.579 4.008-7.963 3.99-13.078.018-6.275-2.455-12.678-7.757-17.472-5.308-4.789-13.361-7.89-24.353-7.884zm-161.474 55.102c7.315 0 12.515 1.488 15.767 3.803 3.247 2.334 4.716 5.399 4.74 9.226-.006 3.193-.991 6.409-3.845 8.906-2.854 2.503-7.769 4.407-15.931 4.407h-16.427v-26.342zm164.829 26.342h-16.426v-26.342h15.695c7.321 0 12.515 1.488 15.774 3.803 3.246 2.334 4.715 5.399 4.74 9.226-.012 3.193-.992 6.409-3.846 8.906-2.847 2.503-7.775 4.407-15.937 4.407zm-4.806-66.372c6.348 0 10.278 1.457 12.594 3.513 2.309 2.05 3.228 4.8 3.24 8.011-.018 4.673-1.493 7.793-4.552 9.994-3.078 2.219-8.023 3.446-14.928 3.446h-7.974v-24.964zm-164.11 0c6.354 0 10.284 1.457 12.605 3.513 2.31 2.05 3.235 4.8 3.241 8.011-.024 4.673-1.506 7.793-4.559 9.994-3.077 2.219-8.023 3.446-14.921 3.446h-7.975v-24.964z" fill="#fff" fill-rule="nonzero" transform="matrix(.165401 0 0 -.165401 120.528 484.014)"/></g></svg>

<?xml version="1.0" encoding="UTF-8" standalone="no"?>
<!DOCTYPE svg PUBLIC "-//W3C//DTD SVG 1.1//EN" "http://www.w3.org/Graphics/SVG/1.1/DTD/svg11.dtd">
<svg width="100%" height="100%" viewBox="0 0 560 400" version="1.1" xmlns="http://www.w3.org/2000/svg" xmlns:xlink="http://www.w3.org/1999/xlink" xml:space="preserve" xmlns:serif="http://www.serif.com/" style="fill-rule:evenodd;clip-rule:evenodd;stroke-linejoin:round;stroke-miterlimit:1.41421;">
    <g transform="matrix(1.5873,2.64128e-32,-2.64128e-32,-1.5873,-45.8,866.93)">
        <rect id="path2416" x="121.254" y="357.166" width="168" height="126" style="fill:rgb(192,37,25);"/>
        <g id="path2418" transform="matrix(0.165401,0,0,-0.165401,120.528,484.014)">
            <path d="M776.505,595.857L760.277,585.996C750.096,579.781 742.853,573.669 738.548,567.653C734.244,561.637 732.085,554.715 732.085,546.885C732.085,535.138 736.16,525.604 744.316,518.276C752.46,510.942 763.052,507.272 776.081,507.272C788.53,507.272 799.957,510.773 810.356,517.762L810.356,542C799.606,531.662 788.034,526.492 775.652,526.492C768.675,526.492 762.944,528.107 758.457,531.335C753.977,534.558 751.728,538.687 751.728,543.723C751.728,548.185 753.385,552.375 756.686,556.269C759.993,560.174 765.301,564.267 772.623,568.548L788.935,578.203C807.127,589.074 816.22,602.907 816.22,619.702C816.22,631.661 812.218,641.377 804.213,648.85C796.202,656.322 785.791,660.053 772.98,660.053C758.252,660.053 744.836,655.536 732.732,646.474L732.732,619.352C744.256,633.965 757.605,641.268 772.768,641.268C779.461,641.268 785.029,639.406 789.479,635.682C793.929,631.957 796.154,627.296 796.154,621.691C796.154,612.617 789.6,604.007 776.505,595.857ZM555.605,658.995L551.022,658.995L490.907,509.201L512.419,509.201L553.519,612.012L594.903,509.201L615.091,509.201L656.662,612.012L697.351,509.201L718.645,509.201L658.337,658.995L653.645,658.995L604.879,537.702L555.605,658.995ZM228.327,658.348L208.261,658.348L208.261,509.201L225.552,509.201L326.126,625.041L326.126,509.201L346.416,509.201L346.416,658.348L328.049,658.348L228.327,543.475L228.327,658.348ZM471.482,658.136L384.898,658.136L384.898,509.201L469.457,509.201L469.457,528.197L406.252,528.197L406.252,573.681L467.322,573.681L467.322,592.792L406.252,592.792L406.252,639.134L471.482,639.134L471.482,658.136ZM421.627,303.876C444.674,303.876 463.864,311.173 479.19,325.768C494.517,340.357 502.189,358.652 502.189,380.641C502.189,402.642 494.45,420.84 478.979,435.26C463.507,449.667 444.003,456.874 420.448,456.874C397.982,456.874 379.251,449.667 364.282,435.26C349.306,420.84 341.815,402.781 341.815,381.07C341.815,358.791 349.354,340.357 364.433,325.768C379.517,311.173 398.58,303.876 421.627,303.876ZM175.413,455.804L170.83,455.804L110.71,306.01L132.233,306.01L173.333,408.833L214.712,306.01L234.899,306.01L276.471,408.833L317.154,306.01L338.454,306.01L278.152,455.804L273.454,455.804L224.688,334.522L175.413,455.804ZM548.259,455.169L526.905,455.169L526.905,306.01L564.269,306.01C579.359,306.01 591.342,309.746 600.2,317.219C609.063,324.698 613.488,334.801 613.488,347.545C613.488,356.233 611.324,363.742 606.983,370.078C602.636,376.409 596.409,381.149 588.295,384.274C593.065,387.412 597.727,391.681 602.279,397.092C606.838,402.497 613.241,411.922 621.499,425.374C626.699,433.851 630.864,440.223 633.99,444.486L641.892,455.169L616.481,455.169L609.976,445.344C609.758,444.987 609.335,444.377 608.694,443.524L604.54,437.648L597.926,426.753L590.78,415.108C586.379,408.984 582.34,404.111 578.67,400.483C575,396.862 571.681,394.25 568.731,392.648C565.768,391.058 560.798,390.254 553.815,390.254L548.259,390.254L548.259,455.169ZM751.221,455.169L662.714,455.169L662.714,306.01L684.068,306.01L684.068,435.737L751.221,435.737L751.221,455.169ZM823.874,454.951L776.68,454.951L776.68,306.01L826.964,306.01C847.254,306.01 863.3,309.057 875.126,315.145C886.939,321.227 896.329,330.175 903.306,341.995C910.283,353.809 913.771,366.693 913.771,380.641C913.771,390.61 911.848,400.145 908.003,409.256C904.158,418.373 898.68,426.378 891.564,433.276C884.303,440.405 875.863,445.773 866.256,449.401C860.633,451.608 855.476,453.083 850.773,453.833C846.075,454.582 837.109,454.951 823.874,454.951ZM422.486,324.166C405.412,324.166 391.386,329.504 380.4,340.175C369.409,350.858 363.919,364.492 363.919,381.07C363.919,397.158 369.433,410.544 380.455,421.221C391.476,431.892 405.273,437.23 421.845,437.23C438.477,437.23 452.365,431.783 463.501,420.894C474.626,410.006 480.188,396.445 480.188,380.217C480.188,364.413 474.626,351.125 463.501,340.339C452.365,329.553 438.695,324.166 422.486,324.166ZM824.727,325.018L798.034,325.018L798.034,435.949L825.362,435.949C836.045,435.949 844.334,435.223 850.247,433.76C856.147,432.303 861.075,430.447 865.035,428.21C868.977,425.961 872.592,423.21 875.863,419.933C886.395,409.256 891.667,395.774 891.667,379.468C891.667,363.452 886.256,350.393 875.44,340.29C871.456,336.518 866.879,333.416 861.722,330.998C856.552,328.579 851.661,326.977 847.036,326.191C842.411,325.411 834.975,325.018 824.727,325.018ZM554.662,324.166L548.259,324.166L548.259,371.251L556.373,371.251C567.189,371.251 574.607,370.326 578.634,368.47C582.654,366.626 585.786,363.827 588.029,360.097C590.272,356.36 591.391,352.104 591.391,347.328C591.391,342.636 590.145,338.386 587.654,334.571C585.163,330.762 581.657,328.077 577.14,326.518C572.618,324.946 565.121,324.166 554.662,324.166ZM747.551,238.749L605.133,238.749L605.133,104.723L747.551,104.723L747.551,238.749ZM419.348,238.749L276.93,238.749L276.93,104.723L419.348,104.723L419.348,238.749ZM583.446,238.749L441.023,238.749L441.023,104.723L583.446,104.723L583.446,238.749ZM719.268,194.203L716.982,195.599C705.955,202.334 693.96,205.944 683.065,205.938C659.74,205.847 644.383,192.026 644.323,171.917C644.347,152.238 660.387,137.673 682.472,137.625C693.724,137.631 703.911,140.539 716.021,147.178L718.246,148.399L718.246,130.436L717.291,130.062C703.639,124.675 693.065,122.274 682.624,122.28C666.475,122.274 652.466,127.607 642.485,136.652C632.509,145.702 626.578,158.477 626.59,173.151C626.596,183.374 630.81,195.351 639.843,204.862C648.845,214.372 662.72,221.301 681.747,221.294L681.813,221.294C697.593,221.294 708.536,217.782 718.427,212.903L719.268,212.492L719.268,194.203ZM344.651,123.514L314.288,123.514L314.288,220.043L349.917,220.043C362.631,220.043 371.549,216.597 377.293,211.488C383.036,206.403 385.521,199.729 385.509,193.58C385.551,181.403 377.432,172.147 364.469,168.592C367.964,166.803 370.733,164.614 372.758,161.948C375.479,158.369 376.767,153.985 376.76,148.87C376.767,142.595 374.3,136.192 368.998,131.398C363.695,126.609 355.642,123.508 344.651,123.514ZM508.749,123.514L478.392,123.514L478.392,220.043L514.021,220.043C526.73,220.043 535.653,216.597 541.397,211.488C547.147,206.403 549.613,199.729 549.607,193.58C549.65,181.403 541.542,172.147 528.561,168.592C532.068,166.803 534.837,164.614 536.869,161.948C539.577,158.369 540.877,153.985 540.859,148.87C540.877,142.595 538.404,136.192 533.102,131.398C527.794,126.609 519.741,123.508 508.749,123.514ZM347.275,178.616C354.59,178.616 359.79,180.104 363.042,182.419C366.289,184.753 367.758,187.818 367.782,191.645C367.776,194.838 366.791,198.054 363.937,200.551C361.083,203.054 356.168,204.958 348.006,204.958L331.579,204.958L331.579,178.616L347.275,178.616ZM512.104,204.958L495.678,204.958L495.678,178.616L511.373,178.616C518.694,178.616 523.888,180.104 527.147,182.419C530.393,184.753 531.862,187.818 531.887,191.645C531.875,194.838 530.895,198.054 528.041,200.551C525.194,203.054 520.266,204.958 512.104,204.958ZM507.298,138.586C513.646,138.586 517.576,140.043 519.892,142.099C522.201,144.149 523.12,146.899 523.132,150.11C523.114,154.783 521.639,157.903 518.58,160.104C515.502,162.323 510.557,163.55 503.652,163.55L495.678,163.55L495.678,138.586L507.298,138.586ZM343.188,138.586C349.542,138.586 353.472,140.043 355.793,142.099C358.103,144.149 359.028,146.899 359.034,150.11C359.01,154.783 357.528,157.903 354.475,160.104C351.398,162.323 346.452,163.55 339.554,163.55L331.579,163.55L331.579,138.586L343.188,138.586Z" style="fill:white;fill-rule:nonzero;"/>
        </g>
    </g>
</svg>
